icons/Email-Edit.svg

<svg width="24" height="24" viewBox="0 0 24 24" fill="none" xmlns="http://www.w3.org/2000/svg">
<g id="Email-Edit">
<path id="Vector" d="M10 20H5.4C4.49908 19.9974 3.6358 19.6383 2.99875 19.0012C2.3617 18.3642 2.00264 17.5009 2 16.6V7.4C2.00264 6.49908 2.3617 5.6358 2.99875 4.99875C3.6358 4.3617 4.49908 4.00264 5.4 4H18.6C19.5009 4.00264 20.3642 4.3617 21.0012 4.99875C21.6383 5.6358 21.9974 6.49908 22 7.4V9" stroke="#00153F" stroke-width="1.5" stroke-linecap="round" stroke-linejoin="round"/>
<path id="Vector_2" d="M6 9L10.84 12.17C11.1787 12.4112 11.5842 12.5408 12 12.5408C12.4158 12.5408 12.8213 12.4112 13.16 12.17L18 9" stroke="#00153F" stroke-width="1.5" stroke-linecap="round" stroke-linejoin="round"/>
<path id="Vector_3" d="M13.91 17.49L19.49 11.91C19.5962 11.8079 19.7377 11.7509 19.885 11.7509C20.0323 11.7509 20.1738 11.8079 20.28 11.91L21.84 13.47C21.9421 13.5761 21.9991 13.7177 21.9991 13.865C21.9991 14.0122 21.9421 14.1538 21.84 14.26L16.26 19.84C16.1541 19.9395 16.0153 19.9965 15.87 20H14.3C14.1541 20 14.0142 19.942 13.9111 19.8389C13.8079 19.7357 13.75 19.5958 13.75 19.45V17.89C13.751 17.7412 13.8082 17.5984 13.91 17.49Z" stroke="#00153F" stroke-width="1.5" stroke-linecap="round" stroke-linejoin="round"/>
<path id="Vector_4" d="M18.15 13.26L20.49 15.6" stroke="#00153F" stroke-width="1.5" stroke-linecap="round" stroke-linejoin="round"/>
</g>
</svg>

<svg xmlns="http://www.w3.org/2000/svg" fill="none" viewBox="0 0 24 24"><g stroke="currentColor" stroke-linecap="round" stroke-linejoin="round" stroke-width="1.5"><path d="M10 20H5.4A3.41 3.41 0 0 1 2 16.6V7.4A3.41 3.41 0 0 1 5.4 4h13.2A3.41 3.41 0 0 1 22 7.4V9"/><path d="m6 9 4.84 3.17a2 2 0 0 0 2.32 0L18 9m-4.09 8.49 5.58-5.58a.57.57 0 0 1 .79 0l1.56 1.56a.57.57 0 0 1 0 .79l-5.58 5.58a.59.59 0 0 1-.39.16H14.3a.55.55 0 0 1-.55-.55v-1.56a.59.59 0 0 1 .16-.4Zm4.24-4.23 2.34 2.34"/></g></svg>
